X:1
%% Copyright 1939, 1940 ABC Music Corporation, USA. Chappel Music Limited, 129 Park Street, London W1.
T:Polka dots and moonbeams
M:4/4
L:1/8
C:Johnny Burke & Jimmy Van Heusen
Q:1/4=72
%%staves (chords melody)
K:F
%%text (ballad)
%%vskip 20
P:A
V:chords
"F6"x4 "Dm7"x4 | "Gm7"x4 "C7"x4 | "F6"x4 "Dm7"x4 | "Gm7"x4 "Em7b5"x2"A7"x2 |
"Dm7"x4 "Bbm7"x2"Eb7"x2 | "F6"x2 "Bb7"x2 "Am7"x2 "Abm7"x2 | "Gm7"x4 "C7"x4 | "F6"x4 "T.A."x4 ||
V:melody
zCDE FGAc | A2GF ED3 | zCDE FGAc | d2cB AG3 |
